src/assets/outline/Hierarchy3.svg

<?xml version="1.0" encoding="UTF-8"?>
<svg width="24" height="24" viewBox="0 0 24 24" xmlns="http://www.w3.org/2000/svg">
 <path d="m5 8.75c-2.07 0-3.75-1.68-3.75-3.75s1.68-3.75 3.75-3.75 3.75 1.68 3.75 3.75-1.68 3.75-3.75 3.75zm0-6c-1.24 0-2.25 1.01-2.25 2.25s1.01 2.25 2.25 2.25 2.25-1.01 2.25-2.25-1.01-2.25-2.25-2.25z"/>
 <path d="m19 15.75c-2.07 0-3.75-1.68-3.75-3.75s1.68-3.75 3.75-3.75 3.75 1.68 3.75 3.75-1.68 3.75-3.75 3.75zm0-6c-1.24 0-2.25 1.01-2.25 2.25s1.01 2.25 2.25 2.25 2.25-1.01 2.25-2.25-1.01-2.25-2.25-2.25z"/>
 <path d="m5 22.75c-2.07 0-3.75-1.68-3.75-3.75s1.68-3.75 3.75-3.75 3.75 1.68 3.75 3.75-1.68 3.75-3.75 3.75zm0-6c-1.24 0-2.25 1.01-2.25 2.25s1.01 2.25 2.25 2.25 2.25-1.01 2.25-2.25-1.01-2.25-2.25-2.25z"/>
 <path d="m5 16.75c-0.41 0-0.75-0.34-0.75-0.75v-8c0-0.41 0.34-0.75 0.75-0.75s0.75 0.34 0.75 0.75c0 2.19 1.06 3.25 3.25 3.25h7c0.41 0 0.75 0.34 0.75 0.75s-0.34 0.75-0.75 0.75h-7c-1.36 0-2.45-0.35-3.25-1.01v4.26c0 0.41-0.34 0.75-0.75 0.75z"/>
</svg>

<svg width="24" height="24" viewBox="0 0 24 24"  xmlns="http://www.w3.org/2000/svg">
<path d="M5 8.75C2.93 8.75 1.25 7.07 1.25 5C1.25 2.93 2.93 1.25 5 1.25C7.07 1.25 8.75 2.93 8.75 5C8.75 7.07 7.07 8.75 5 8.75ZM5 2.75C3.76 2.75 2.75 3.76 2.75 5C2.75 6.24 3.76 7.25 5 7.25C6.24 7.25 7.25 6.24 7.25 5C7.25 3.76 6.24 2.75 5 2.75Z" />
<path d="M19 15.75C16.93 15.75 15.25 14.07 15.25 12C15.25 9.93 16.93 8.25 19 8.25C21.07 8.25 22.75 9.93 22.75 12C22.75 14.07 21.07 15.75 19 15.75ZM19 9.75C17.76 9.75 16.75 10.76 16.75 12C16.75 13.24 17.76 14.25 19 14.25C20.24 14.25 21.25 13.24 21.25 12C21.25 10.76 20.24 9.75 19 9.75Z" />
<path d="M5 22.75C2.93 22.75 1.25 21.07 1.25 19C1.25 16.93 2.93 15.25 5 15.25C7.07 15.25 8.75 16.93 8.75 19C8.75 21.07 7.07 22.75 5 22.75ZM5 16.75C3.76 16.75 2.75 17.76 2.75 19C2.75 20.24 3.76 21.25 5 21.25C6.24 21.25 7.25 20.24 7.25 19C7.25 17.76 6.24 16.75 5 16.75Z" />
<path d="M5 16.75C4.59 16.75 4.25 16.41 4.25 16V8C4.25 7.59 4.59 7.25 5 7.25C5.41 7.25 5.75 7.59 5.75 8C5.75 10.19 6.81 11.25 9 11.25H16C16.41 11.25 16.75 11.59 16.75 12C16.75 12.41 16.41 12.75 16 12.75H9C7.64 12.75 6.55 12.4 5.75 11.74V16C5.75 16.41 5.41 16.75 5 16.75Z" />
</svg>
